apps/24/accessibility.svg

<?xml version="1.0" encoding="UTF-8" standalone="no"?>
<!-- Created with Inkscape (http://www.inkscape.org/) -->

<svg
   xmlns:a="http://ns.adobe.com/AdobeSVGViewerExtensions/3.0/"
   xmlns:i="http://ns.adobe.com/AdobeIllustrator/10.0/"
   xmlns:dc="http://purl.org/dc/elements/1.1/"
   xmlns:cc="http://creativecommons.org/ns#"
   xmlns:rdf="http://www.w3.org/1999/02/22-rdf-syntax-ns#"
   xmlns:svg="http://www.w3.org/2000/svg"
   xmlns="http://www.w3.org/2000/svg"
   xmlns:sodipodi="http://sodipodi.sourceforge.net/DTD/sodipodi-0.dtd"
   xmlns:inkscape="http://www.inkscape.org/namespaces/inkscape"
   width="24"
   height="24"
   id="svg2"
   version="1.1"
   inkscape:version="0.48.3.1 r9886"
   sodipodi:docname="accessibility.svg"
   inkscape:export-filename="/home/anton/.kde4/share/apps/desktoptheme/appo/icons/nepomuk.png"
   inkscape:export-xdpi="90"
   inkscape:export-ydpi="90">
  <sodipodi:namedview
     id="base"
     pagecolor="#ffffff"
     bordercolor="#666666"
     borderopacity="1.0"
     inkscape:pageopacity="0.0"
     inkscape:pageshadow="2"
     inkscape:zoom="32"
     inkscape:cx="13.648135"
     inkscape:cy="11.332089"
     inkscape:document-units="px"
     inkscape:current-layer="klipper"
     showgrid="true"
     inkscape:window-width="1920"
     inkscape:window-height="1027"
     inkscape:window-x="-10"
     inkscape:window-y="31"
     inkscape:window-maximized="1"
     inkscape:snap-grids="true"
     showguides="true"
     inkscape:guide-bbox="true"
     inkscape:snap-bbox="true"
     inkscape:object-paths="true"
     inkscape:snap-global="true"
     inkscape:bbox-paths="true"
     inkscape:bbox-nodes="true"
     inkscape:snap-bbox-edge-midpoints="true"
     inkscape:snap-bbox-midpoints="true"
     inkscape:snap-intersection-paths="true"
     inkscape:object-nodes="true"
     inkscape:snap-smooth-nodes="true"
     inkscape:snap-midpoints="true"
     inkscape:snap-object-midpoints="true"
     inkscape:snap-center="true">
    <inkscape:grid
       snapvisiblegridlinesonly="true"
       enabled="true"
       visible="true"
       empspacing="5"
       id="grid2818"
       type="xygrid" />
  </sodipodi:namedview>
  <defs
     id="defs4">
    <mask
       maskUnits="userSpaceOnUse"
       x="122.963"
       y="97.149"
       width="576.609"
       height="587.491"
       id="XMLID_23_"
       i:invertMask="false"
       i:clipMask="true">
      <g
         style="filter:url(#Adobe_OpacityMaskFilter)"
         id="g37">
        <radialGradient
           id="XMLID_24_"
           cx="88.977501"
           cy="-20.899401"
           r="673.11609"
           fx="88.977501"
           fy="-20.899401"
           gradientUnits="userSpaceOnUse">
          <stop
             offset="0.309"
             style="stop-color:#FFFFFF"
             id="stop40" />
          <stop
             offset="1"
             style="stop-color:#000000"
             id="stop42" />
          <a:midPointStop
             offset="0.309"
             style="stop-color:#FFFFFF" />
          <a:midPointStop
             offset="0.5"
             style="stop-color:#FFFFFF" />
          <a:midPointStop
             offset="1"
             style="stop-color:#000000" />
        </radialGradient>
        <ellipse
           style="fill:url(#XMLID_24_)"
           sodipodi:ry="349.10599"
           sodipodi:rx="512.93402"
           sodipodi:cy="286.172"
           sodipodi:cx="295.89499"
           i:knockout="Off"
           cx="295.89499"
           cy="286.172"
           rx="512.93402"
           ry="349.10599"
           id="ellipse44" />
      </g>
    </mask>
    <filter
       color-interpolation-filters="sRGB"
       id="Adobe_OpacityMaskFilter"
       filterUnits="userSpaceOnUse"
       x="122.963"
       y="97.149002"
       width="576.60901"
       height="587.49103">
      <feColorMatrix
         type="matrix"
         values="1 0 0 0 0  0 1 0 0 0  0 0 1 0 0  0 0 0 1 0"
         id="feColorMatrix34" />
    </filter>
    <mask
       maskUnits="userSpaceOnUse"
       x="155.705"
       y="461.543"
       width="93.126"
       height="44.813"
       id="XMLID_26_"
       i:invertMask="false"
       i:clipMask="true">
      <g
         style="filter:url(#Adobe_OpacityMaskFilter_1_)"
         id="g75">
        <linearGradient
           id="XMLID_1_"
           gradientUnits="userSpaceOnUse"
           x1="211.7222"
           y1="562.85791"
           x2="200.0733"
           y2="466.75449">
          <stop
             offset="0"
             style="stop-color:#FFFFFF"
             id="stop78" />
          <stop
             offset="1"
             style="stop-color:#000000"
             id="stop80" />
          <a:midPointStop
             offset="0"
             style="stop-color:#FFFFFF" />
          <a:midPointStop
             offset="0.5"
             style="stop-color:#FFFFFF" />
          <a:midPointStop
             offset="1"
             style="stop-color:#000000" />
        </linearGradient>
        <ellipse
           style="fill:url(#XMLID_1_)"
           sodipodi:ry="59.682999"
           sodipodi:rx="80.542"
           sodipodi:cy="495.98801"
           sodipodi:cx="203.617"
           i:knockout="Off"
           cx="203.617"
           cy="495.98801"
           rx="80.542"
           ry="59.682999"
           id="ellipse82" />
      </g>
    </mask>
    <filter
       color-interpolation-filters="sRGB"
       id="Adobe_OpacityMaskFilter_1_"
       filterUnits="userSpaceOnUse"
       x="155.705"
       y="461.543"
       width="93.125999"
       height="44.813">
      <feColorMatrix
         type="matrix"
         values="1 0 0 0 0  0 1 0 0 0  0 0 1 0 0  0 0 0 1 0"
         id="feColorMatrix72" />
    </filter>
    <mask
       maskUnits="userSpaceOnUse"
       x="101.57"
       y="425.034"
       width="156.907"
       height="127.553"
       id="XMLID_2_"
       i:invertMask="false"
       i:clipMask="true">
      <g
         style="filter:url(#Adobe_OpacityMaskFilter_2_)"
         id="g92">
        <linearGradient
           id="XMLID_3_"
           gradientUnits="userSpaceOnUse"
           x1="206.09081"
           y1="397.62061"
           x2="186.92191"
           y2="563.47321">
          <stop
             offset="0"
             style="stop-color:#FFFFFF"
             id="stop95" />
          <stop
             offset="0.1111"
             style="stop-color:#CBCBCB"
             id="stop97" />
          <stop
             offset="0.2396"
             style="stop-color:#969696"
             id="stop99" />
          <stop
             offset="0.3698"
             style="stop-color:#686868"
             id="stop101" />
          <stop
             offset="0.4991"
             style="stop-color:#424242"
             id="stop103" />
          <stop
             offset="0.6273"
             style="stop-color:#252525"
             id="stop105" />
          <stop
             offset="0.7542"
             style="stop-color:#111111"
             id="stop107" />
          <stop
             offset="0.8792"
             style="stop-color:#040404"
             id="stop109" />
          <stop
             offset="1"
             style="stop-color:#000000"
             id="stop111" />
          <a:midPointStop
             offset="0"
             style="stop-color:#FFFFFF" />
          <a:midPointStop
             offset="0.2994"
             style="stop-color:#FFFFFF" />
          <a:midPointStop
             offset="1"
             style="stop-color:#000000" />
        </linearGradient>
        <ellipse
           style="fill:url(#XMLID_3_)"
           sodipodi:ry="123.604"
           sodipodi:rx="160.94"
           sodipodi:cy="495.62299"
           sodipodi:cx="194.76401"
           i:knockout="Off"
           cx="194.76401"
           cy="495.62299"
           rx="160.94"
           ry="123.604"
           id="ellipse113" />
      </g>
    </mask>
    <filter
       color-interpolation-filters="sRGB"
       id="Adobe_OpacityMaskFilter_2_"
       filterUnits="userSpaceOnUse"
       x="101.57"
       y="425.034"
       width="156.907"
       height="127.553">
      <feColorMatrix
         type="matrix"
         values="1 0 0 0 0  0 1 0 0 0  0 0 1 0 0  0 0 0 1 0"
         id="feColorMatrix89" />
    </filter>
    <mask
       maskUnits="userSpaceOnUse"
       x="191.541"
       y="217.631"
       width="447.197"
       height="527.73"
       id="XMLID_10_"
       i:invertMask="false"
       i:clipMask="true">
      <g
         style="filter:url(#Adobe_OpacityMaskFilter_3_)"
         id="g165">
        <radialGradient
           id="XMLID_11_"
           cx="657.2124"
           cy="155.23289"
           r="606.95343"
           fx="657.2124"
           fy="155.23289"
           gradientTransform="matrix(0.931,0,0,0.9299,28.7459,21.6629)"
           gradientUnits="userSpaceOnUse">
          <stop
             offset="0"
             style="stop-color:#C9C9C8"
             id="stop168" />
          <stop
             offset="0.0881"
             style="stop-color:#C4C4C4"
             id="stop170" />
          <stop
             offset="0.2192"
             style="stop-color:#B8B8B7"
             id="stop172" />
          <stop
             offset="0.3769"
             style="stop-color:#A1A0A0"
             id="stop174" />
          <stop
             offset="0.5556"
             style="stop-color:#7F7F7E"
             id="stop176" />
          <stop
             offset="0.7517"
             style="stop-color:#4F4F4E"
             id="stop178" />
          <stop
             offset="0.9595"
             style="stop-color:#121212"
             id="stop180" />
          <stop
             offset="1"
             style="stop-color:#000000"
             id="stop182" />
          <a:midPointStop
             offset="0"
             style="stop-color:#C9C9C8" />
          <a:midPointStop
             offset="0.6215"
             style="stop-color:#C9C9C8" />
          <a:midPointStop
             offset="1"
             style="stop-color:#000000" />
        </radialGradient>
        <circle
           style="fill:url(#XMLID_11_)"
           sodipodi:ry="302.95401"
           sodipodi:rx="302.95401"
           sodipodi:cy="444.22601"
           sodipodi:cx="408.427"
           i:knockout="Off"
           cx="408.427"
           cy="444.22601"
           r="302.95401"
           id="circle184" />
      </g>
    </mask>
    <filter
       color-interpolation-filters="sRGB"
       id="Adobe_OpacityMaskFilter_3_"
       filterUnits="userSpaceOnUse"
       x="191.541"
       y="217.631"
       width="447.19699"
       height="527.72998">
      <feColorMatrix
         type="matrix"
         values="1 0 0 0 0  0 1 0 0 0  0 0 1 0 0  0 0 0 1 0"
         id="feColorMatrix162" />
    </filter>
    <mask
       maskUnits="userSpaceOnUse"
       x="243.061"
       y="279.317"
       width="252.506"
       height="187.183"
       id="XMLID_13_"
       i:invertMask="false"
       i:clipMask="true">
      <g
         style="filter:url(#Adobe_OpacityMaskFilter_4_)"
         id="g199">
        <linearGradient
           id="XMLID_14_"
           gradientUnits="userSpaceOnUse"
           x1="340.0488"
           y1="266.93359"
           x2="372.38071"
           y2="417.81519">
          <stop
             offset="0"
             style="stop-color:#FFFFFF"
             id="stop202" />
          <stop
             offset="0.0867"
             style="stop-color:#F8F8F8"
             id="stop204" />
          <stop
             offset="0.2156"
             style="stop-color:#E4E4E4"
             id="stop206" />
          <stop
             offset="0.3708"
             style="stop-color:#C2C2C2"
             id="stop208" />
          <stop
             offset="0.5465"
             style="stop-color:#949494"
             id="stop210" />
          <stop
             offset="0.7394"
             style="stop-color:#595959"
             id="stop212" />
          <stop
             offset="0.9438"
             style="stop-color:#151515"
             id="stop214" />
          <stop
             offset="0.9944"
             style="stop-color:#000000"
             id="stop216" />
          <a:midPointStop
             offset="0"
             style="stop-color:#FFFFFF" />
          <a:midPointStop
             offset="0.6215"
             style="stop-color:#FFFFFF" />
          <a:midPointStop
             offset="0.9944"
             style="stop-color:#000000" />
        </linearGradient>
        <ellipse
           style="fill:url(#XMLID_14_)"
           sodipodi:ry="183.32201"
           sodipodi:rx="215.32401"
           sodipodi:cy="374.28201"
           sodipodi:cx="363.052"
           i:knockout="Off"
           cx="363.052"
           cy="374.28201"
           rx="215.32401"
           ry="183.32201"
           id="ellipse218" />
      </g>
    </mask>
    <filter
       color-interpolation-filters="sRGB"
       id="Adobe_OpacityMaskFilter_4_"
       filterUnits="userSpaceOnUse"
       x="243.061"
       y="279.31699"
       width="252.506"
       height="187.183">
      <feColorMatrix
         type="matrix"
         values="1 0 0 0 0  0 1 0 0 0  0 0 1 0 0  0 0 0 1 0"
         id="feColorMatrix196" />
    </filter>
  </defs>
  <metadata
     id="metadata7">
    <rdf:RDF>
      <cc:Work
         rdf:about="">
        <dc:format>image/svg+xml</dc:format>
        <dc:type
           rdf:resource="http://purl.org/dc/dcmitype/StillImage" />
        <dc:title />
      </cc:Work>
    </rdf:RDF>
  </metadata>
  <g
     transform="translate(8.4852817,-1016.6949)"
     id="klipper"
     inkscape:groupmode="layer"
     inkscape:label="Layer 1">
    <path
       inkscape:connector-curvature="0"
       style="fill:#ffffff;fill-opacity:0.4;fill-rule:nonzero;stroke:none"
       d="m 23.514718,1025.1011 0,0.7813 c 2.192996,0.3709 4.196591,1.3306 5.8125,2.7187 -1.540535,-1.6772 -3.538209,-2.9124 -5.8125,-3.5 z m 7.34375,2.25 c 1.819679,2.013 3.095648,4.5259 3.5,7.3438 l -1.25,0 c 0.08438,0.3266 0.161788,0.6632 0.21875,1 l 2.03125,0 c -0.474742,-3.3085 -2.136643,-6.2073 -4.5,-8.3438 z m -7.34375,1.9375 0,0.6563 c 1.168043,0.2998 2.227907,0.8757 3.125,1.625 -0.837111,-1.0022 -1.894171,-1.7845 -3.125,-2.2813 z m 4.53125,0.8751 c 1.100108,1.27 1.900326,2.8224 2.25,4.5312 l -1.375,0 c 0.130316,0.3229 0.255882,0.6577 0.34375,1 l 2.03125,0 c -0.44958,-2.197 -1.617143,-4.1168 -3.25,-5.5312 z m -2.78125,2.8437 c 0.389353,0.5014 0.690407,1.0763 0.90625,1.6875 l -2.0625,0 c 0.330833,0.2847 0.618854,0.6121 0.84375,1 l 2.21875,0 c -0.376553,-1.0662 -1.041941,-1.9956 -1.90625,-2.6875 z m -1.75,1.0938 0,0.1562 c 0.09333,0.054 0.193793,0.096 0.28125,0.1563 -0.07982,-0.1157 -0.190647,-0.2073 -0.28125,-0.3125 z"
       id="path3071" />
    <path
       id="path3051"
       d="m 3.5147183,1020.6949 c -1.1045695,0 -2,0.8954 -2,2 0,1.1046 0.8954305,2 2,2 1.1045695,0 2,-0.8954 2,-2 0,-1.1046 -0.8954305,-2 -2,-2 z m 0,4 -2,0 -5,0 0,1 5,1 0,2 -2,8 2,0 2,-6 2,6 2,0 -2,-8 0,-2 4.9999997,-1 0,-1 -4.9999997,0 z"
       style="color:#000000;fill:#27303a;fill-opacity:0.753280819999999968;fill-rule:nonzero;stroke:none;stroke-width:2;marker:none;visibility:visible;display:inline;overflow:visible;enable-background:accumulate"
       inkscape:connector-curvature="0"
       sodipodi:nodetypes="sssssccccccccccccccccc" />
    <path
       style="font-size:medium;font-style:normal;font-variant:normal;font-weight:normal;font-stretch:normal;text-indent:0;text-align:start;text-decoration:none;line-height:normal;letter-spacing:normal;word-spacing:normal;text-transform:none;direction:ltr;block-progression:tb;writing-mode:lr-tb;text-anchor:start;baseline-shift:baseline;color:#000000;fill:#f1f3f5;fill-opacity:0.90288714000000003;fill-rule:nonzero;stroke:none;stroke-width:2;marker:none;visibility:visible;display:inline;overflow:visible;enable-background:accumulate;font-family:Sans;-inkscape-font-specification:Sans"
       d="M 12 2.84375 C 10.273924 2.84375 8.84375 4.2739 8.84375 6 C 8.84375 6.3264 8.9057406 6.7027 9 7 L 4 7 L 4 10 L 4.71875 10.125 L 8.84375 10.90625 L 8.84375 11.8125 L 6.90625 19.625 L 6.46875 21 L 10.90625 21 L 11.09375 20.375 L 12 17.65625 L 12.90625 20.375 L 13.09375 21 L 17.53125 21 L 17.09375 19.625 L 15.15625 11.8125 L 15.15625 10.90625 L 19.28125 10.125 L 20 10 L 20 7 L 15 7 C 15.094259 6.7027 15.15625 6.3264 15.15625 6 C 15.15625 4.2739 13.726076 2.84375 12 2.84375 z M 12 4 C 13.10457 4 14 4.8954 14 6 C 14 7.1046 13.104569 8 12 8 L 14 8 L 19 8 L 19 9 L 14 10 L 14 12 L 16 20 L 14 20 L 12 14 L 10 20 L 8 20 L 10 12 L 10 10 L 5 9 L 5 8 L 10 8 L 12 8 C 10.89543 8 10 7.1046 10 6 C 10 4.8954 10.895431 4 12 4 z "
       transform="translate(-8.4852817,1016.6949)"
       id="rect3833" />
  </g>
</svg>

<?xml version="1.0" encoding="UTF-8"?>
<svg id="a" width="24" height="24" version="1.1" xmlns="http://www.w3.org/2000/svg" xmlns:cc="http://creativecommons.org/ns#" xmlns:dc="http://purl.org/dc/elements/1.1/" xmlns:rdf="http://www.w3.org/1999/02/22-rdf-syntax-ns#">
	<metadata id="d">
		<rdf:RDF>
			<cc:Work rdf:about="">
				<dc:format>image/svg+xml</dc:format>
				<dc:type rdf:resource="http://purl.org/dc/dcmitype/StillImage"/>
				<dc:title/>
			</cc:Work>
		</rdf:RDF>
	</metadata>
	<defs>
		<style id="current-color-scheme" type="text/css">.ColorScheme-Text {color:#090d11;}.ColorScheme-Background{color:#ffffff;}</style>
	</defs>
	<path id="c" d="m12 4c-1.1046 0-2 0.8954-2 2s0.89543 2 2 2c1.1046 0 2-0.8954 2-2s-0.89543-2-2-2zm0 4h-7v1l5 1v2l-2 8h2l2-6 2 6h2l-2-8v-2l5-1v-1h-5z" style="fill-opacity:.75;fill:currentColor" class="ColorScheme-Text"/>
	<path id="b" d="m12 2.8438c-1.7261 0-3.1562 1.4302-3.1562 3.1562 0 0.3264 0.061991 0.7027 0.15625 1h-5v3l0.71875 0.125 4.125 0.78125v0.90625l-1.9375 7.8125-0.4375 1.375h4.4375l0.1875-0.625 0.90625-2.7188 0.90625 2.7188 0.1875 0.625h4.4375l-0.4375-1.375-1.9375-7.8125v-0.90625l4.125-0.78125 0.71875-0.125v-3h-5c0.09426-0.2973 0.15625-0.6736 0.15625-1 0-1.7261-1.4302-3.1562-3.1562-3.1562zm0 1.1562c1.1046 0 2 0.8954 2 2s-0.89543 2-2 2h7v1l-5 1v2l2 8h-2l-2-6-2 6h-2l2-8v-2l-5-1v-1h7c-1.1046 0-2-0.8954-2-2s0.89543-2 2-2z" style="fill-opacity:.5;fill:currentColor" class="ColorScheme-Background"/>
</svg>
